X:1
T:LE CHIEN
C:Michel PLATRE
Z:Creative Commons BY-NC-SA
L:1/8
M:3/4
K:C
V:1 treble 
V:1
 G>B |: d2 B>d B>d | B2 B>d B>d | B2 B>d B>d | c4 G>B | d2 B>d B>d | B2 B>d B>d | c2 dc BA |1 %8
 G4 G>B :|2 G4 d>e |: f>e f>g f>e | d>c d>e d>c | B>A B>c d>e | d4 d>e | f>e f>g f>e | %15
 d>c d>e d>c | B>A B>A G>F |1 G4 d>e :|2 G4 || %19

